Adwaita++/actions/symbolic/folder-new-symbolic.svg

<svg height="16" width="16" xmlns="http://www.w3.org/2000/svg">
  <g fill="#474747">
    <path d="m12 9.003v1.997h-2v1.997h2v1.996h2v-1.996h2v-1.997h-2v-1.997z"/>
    <path d="m2 1c-.833 0-1.525.564-1.77 1.053-.243.487-.23.947-.23.947v10c0 .833.564 1.525 1.053 1.77.488.244.947.23.947.23h6s1 0 1-1-1-1-1-1h-6v-10h4.586l2 2h5.414v2c0 1 1 1 1 1s1 0 1-1v-2s.014-.459-.23-.947c-.245-.489-.937-1.053-1.77-1.053h-4.586l-2-2z" fill-rule="evenodd"/>
  </g>
</svg>

<svg xmlns="http://www.w3.org/2000/svg" width="16" height="16">
    <g fill="#474747">
        <path d="M12 9.003V11h-2v1.997h2v1.996h2v-1.996h2V11h-2V9.003z"/>
        <path d="M2 1C1.167 1 .475 1.564.23 2.053-.013 2.54 0 3 0 3v10c0 .833.564 1.525 1.053 1.77.488.244.947.23.947.23h6s1 0 1-1-1-1-1-1H2V3h4.586l2 2H14v2c0 1 1 1 1 1s1 0 1-1V5s.014-.459-.23-.947C15.525 3.564 14.833 3 14 3H9.414l-2-2z" style="line-height:normal;font-variant-ligatures:normal;font-variant-position:normal;font-variant-caps:normal;font-variant-numeric:normal;font-variant-alternates:normal;font-feature-settings:normal;text-indent:0;text-align:start;text-decoration-line:none;text-decoration-style:solid;text-decoration-color:#000;text-transform:none;text-orientation:mixed;shape-padding:0;isolation:auto;mix-blend-mode:normal" color="#000" font-weight="400" font-family="sans-serif" white-space="normal" overflow="visible" fill-rule="evenodd"/>
    </g>
</svg>
